logos/tv.arte.svg

<?xml version="1.0" encoding="UTF-8" standalone="no"?>
<!-- Created with Inkscape (http://www.inkscape.org/) -->

<svg
   xmlns:dc="http://purl.org/dc/elements/1.1/"
   xmlns:cc="http://creativecommons.org/ns#"
   xmlns:rdf="http://www.w3.org/1999/02/22-rdf-syntax-ns#"
   xmlns:svg="http://www.w3.org/2000/svg"
   xmlns="http://www.w3.org/2000/svg"
   xmlns:inkscape="http://www.inkscape.org/namespaces/inkscape"
   version="1.0"
   width="341.00546"
   height="83.15831"
   viewBox="0 0 341.193 134.913"
   id="Calque_1"
   xml:space="preserve"
   style="overflow:visible"><metadata
   id="metadata40"><rdf:RDF><cc:Work
       rdf:about=""><dc:format>image/svg+xml</dc:format><dc:type
         rdf:resource="http://purl.org/dc/dcmitype/StillImage" /></cc:Work></rdf:RDF></metadata><defs
   id="defs38">
	
	
</defs>

<g
   transform="matrix(1.62236,0,0,1.62236,-105.869,-0.507613)"
   id="g5">
		<path
   d="M 187.428,0.036 C 198.73,0.022 210.011,0.009 221.314,0 c 0.005,5.125 0.009,10.268 0.014,15.392 6.649,-0.004 13.258,-0.013 19.913,-0.018 0.007,7.052 0.014,14.108 0.019,21.17 -6.651,0.005 -13.263,0.014 -19.909,0.018 0.016,15.334 0.031,30.573 0.045,45.907 -8.362,0.734 -18.599,1.352 -25.148,-0.748 -3.483,-1.117 -6.431,-4.34 -7.693,-7.688 -1.108,-2.908 -1.148,-28.428 -1.158,-37.435 -4.546,0 -9.184,0.005 -13.726,0.014 -0.009,-7.062 -0.014,-14.117 -0.022,-21.17 4.541,-0.004 9.18,-0.009 13.726,-0.014 -0.006,-5.062 -0.137,-10.632 0.053,-15.392 z"
   inkscape:connector-curvature="0"
   id="path7"
   style="fill:#f47920" />
		<path
   d="m 45.097,13.649 c 19.333,-1.441 40.986,4.584 45.08,18.319 0.129,0.617 0.633,3.328 0.633,3.328 0,0 0.108,37.751 0.117,47.406 C 79.694,82.716 68.447,82.723 57.22,82.737 57.213,76.383 57.207,70.016 57.202,63.666 47.754,66.453 27.579,70.506 40.45,82.756 32.297,82.764 10.723,82.836 6.919,82.787 1.988,81.691 -0.922,74.928 0.265,68.448 1.34,62.553 5.075,58.415 9.509,55.844 c 10.867,-6.313 26.985,-5.962 41.037,-9.317 1.837,-0.441 3.686,-0.644 5.062,-1.58 0.84,-0.572 1.184,-1.36 1.396,-2.626 0.937,-5.701 -4.787,-7.39 -10.139,-7.331 -1.601,0.014 -3.819,0.266 -5.24,0.707 -0.991,0.297 -2.369,0.945 -3.143,1.576 -1.626,1.306 -2.617,3.166 -2.612,6.124 -10.824,0.01 -21.667,0.022 -32.488,0.032 0.387,-2.892 0.887,-5.278 1.74,-7.525 C 6.663,31.842 8.711,28.64 11.4,25.75 18.793,17.797 30.774,14.712 45.097,13.649 z"
   inkscape:connector-curvature="0"
   id="path9"
   style="fill:#f47920" />
		<path
   d="m 156.53,13.884 c 3.715,-0.275 6.976,0.68 9.607,1.566 0.007,7.053 0.014,14.109 0.021,21.166 -6.034,0.009 -12.568,-0.365 -16.766,1.418 -2.533,1.067 -5.075,3.558 -6.106,6.134 -1.324,3.278 -0.864,8.61 -0.86,13.118 0.009,8.443 0.016,16.915 0.027,25.368 -11.47,0.008 -22.948,0.021 -34.409,0.031 -0.022,-22.395 -0.045,-44.781 -0.068,-67.176 10.479,-0.014 21.26,-0.022 31.748,-0.036 0.004,2.635 -0.193,5.967 0.047,8.053 3.407,-5.455 8.507,-9.03 16.759,-9.642 z"
   inkscape:connector-curvature="0"
   id="path11"
   style="fill:#f47920" />
		<g
   id="g13">
			<g
   id="g15">
				<path
   d="m 337.152,37.494 c -3.302,-7.35 -8.854,-13.56 -15.739,-17.302 -7.924,-4.31 -19.148,-7.223 -31.967,-6.264 -22.879,1.693 -38.545,12.235 -42.409,33.104 -1.45,7.804 -0.509,16.828 1.77,23.092 0.962,2.652 5.337,11.709 7.35,12.412 2.909,-0.158 18.735,-0.02 24.976,-0.023 -0.007,-5.607 -0.014,-11.195 -0.019,-16.797 19.785,-0.018 39.593,-0.036 59.385,-0.059 1.363,-10.19 -0.113,-20.949 -3.347,-28.163 z M 280.046,48.05 c 0.234,-3.04 0.612,-5.197 1.738,-7.174 1.759,-3.111 4.891,-5.26 9.254,-5.71 10.745,-1.121 15.6,3.913 16.604,12.856 -9.196,0.005 -18.405,0.019 -27.596,0.028 z"
   inkscape:connector-curvature="0"
   id="path17"
   style="fill:#f47920" />
			</g>
		</g>
	</g></svg>

<?xml version="1.0" encoding="UTF-8" standalone="no"?>
<!-- Generator: Adobe Illustrator 12.0.0, SVG Export Plug-In . SVG Version: 6.00 Build 51448)  -->
<svg xmlns:dc="http://purl.org/dc/elements/1.1/" xmlns:cc="http://web.resource.org/cc/" xmlns:rdf="http://www.w3.org/1999/02/22-rdf-syntax-ns#" xmlns:svg="http://www.w3.org/2000/svg" xmlns="http://www.w3.org/2000/svg" xmlns:sodipodi="http://sodipodi.sourceforge.net/DTD/sodipodi-0.dtd" xmlns:inkscape="http://www.inkscape.org/namespaces/inkscape" version="1.0" id="Calque_1" width="341.00546" height="83.15831" viewBox="0 0 341.193 134.913" overflow="visible" enable-background="new 0 0 341.193 134.913" xml:space="preserve" sodipodi:version="0.32" inkscape:version="0.45.1" sodipodi:docname="ARTE-BEL[1].svg" inkscape:output_extension="org.inkscape.output.svg.inkscape" sodipodi:docbase="C:\Users\Virgile"><metadata id="metadata40"><rdf:RDF><cc:Work rdf:about=""><dc:format>image/svg+xml</dc:format><dc:type rdf:resource="http://purl.org/dc/dcmitype/StillImage"/></cc:Work></rdf:RDF></metadata><defs id="defs38">
	
	
</defs><sodipodi:namedview inkscape:window-height="1000" inkscape:window-width="1400" inkscape:pageshadow="2" inkscape:pageopacity="0.0" guidetolerance="10.0" gridtolerance="10.0" objecttolerance="10.0" borderopacity="1.0" bordercolor="#666666" pagecolor="#ffffff" id="base" inkscape:zoom="1.9812834" inkscape:cx="170.5965" inkscape:cy="67.456497" inkscape:window-x="-8" inkscape:window-y="-8" inkscape:current-layer="Calque_1"/>

<g transform="matrix(1.62236, 0, 0, 1.62236, -105.869, -0.507613)" id="g5">
		<path style="fill: rgb(244, 121, 32);" id="path7" d="M 187.428,0.036 C 198.73,0.022 210.011,0.009 221.314,0 C 221.319,5.125 221.323,10.268 221.328,15.392 C 227.977,15.388 234.586,15.379 241.241,15.374 C 241.248,22.426 241.255,29.482 241.26,36.544 C 234.609,36.549 227.997,36.558 221.351,36.562 C 221.367,51.896 221.382,67.135 221.396,82.469 C 213.034,83.203 202.797,83.821 196.248,81.721 C 192.765,80.604 189.817,77.381 188.555,74.033 C 187.447,71.125 187.407,45.605 187.397,36.598 C 182.851,36.598 178.213,36.603 173.671,36.612 C 173.662,29.55 173.657,22.495 173.649,15.442 C 178.19,15.438 182.829,15.433 187.375,15.428 C 187.369,10.366 187.238,4.796 187.428,0.036 z "/>
		<path style="fill: rgb(244, 121, 32);" id="path9" d="M 45.097,13.649 C 64.43,12.208 86.083,18.233 90.177,31.968 C 90.306,32.585 90.81,35.296 90.81,35.296 C 90.81,35.296 90.918,73.047 90.927,82.702 C 79.694,82.716 68.447,82.723 57.22,82.737 C 57.213,76.383 57.207,70.016 57.202,63.666 C 47.754,66.453 27.579,70.506 40.45,82.756 C 32.297,82.764 10.723,82.836 6.919,82.787 C 1.988,81.691 -0.922,74.928 0.265,68.448 C 1.34,62.553 5.075,58.415 9.509,55.844 C 20.376,49.531 36.494,49.882 50.546,46.527 C 52.383,46.086 54.232,45.883 55.608,44.947 C 56.448,44.375 56.792,43.587 57.004,42.321 C 57.941,36.62 52.217,34.931 46.865,34.99 C 45.264,35.004 43.046,35.256 41.625,35.697 C 40.634,35.994 39.256,36.642 38.482,37.273 C 36.856,38.579 35.865,40.439 35.87,43.397 C 25.046,43.407 14.203,43.419 3.382,43.429 C 3.769,40.537 4.269,38.151 5.122,35.904 C 6.663,31.842 8.711,28.64 11.4,25.75 C 18.793,17.797 30.774,14.712 45.097,13.649 z "/>
		<path style="fill: rgb(244, 121, 32);" id="path11" d="M 156.53,13.884 C 160.245,13.609 163.506,14.564 166.137,15.45 C 166.144,22.503 166.151,29.559 166.158,36.616 C 160.124,36.625 153.59,36.251 149.392,38.034 C 146.859,39.101 144.317,41.592 143.286,44.168 C 141.962,47.446 142.422,52.778 142.426,57.286 C 142.435,65.729 142.442,74.201 142.453,82.654 C 130.983,82.662 119.505,82.675 108.044,82.685 C 108.022,60.29 107.999,37.904 107.976,15.509 C 118.455,15.495 129.236,15.487 139.724,15.473 C 139.728,18.108 139.531,21.44 139.771,23.526 C 143.178,18.071 148.278,14.496 156.53,13.884 z "/>
		<g id="g13">
			<g id="g15">
				<path style="fill: rgb(244, 121, 32);" id="path17" d="M 337.152,37.494 C 333.85,30.144 328.298,23.934 321.413,20.192 C 313.489,15.882 302.265,12.969 289.446,13.928 C 266.567,15.621 250.901,26.163 247.037,47.032 C 245.587,54.836 246.528,63.86 248.807,70.124 C 249.769,72.776 254.144,81.833 256.157,82.536 C 259.066,82.378 274.892,82.516 281.133,82.513 C 281.126,76.906 281.119,71.318 281.114,65.716 C 300.899,65.698 320.707,65.68 340.499,65.657 C 341.862,55.467 340.386,44.708 337.152,37.494 z M 280.046,48.05 C 280.28,45.01 280.658,42.853 281.784,40.876 C 283.543,37.765 286.675,35.616 291.038,35.166 C 301.783,34.045 306.638,39.079 307.642,48.022 C 298.446,48.027 289.237,48.041 280.046,48.05 z "/>
			</g>
		</g>
	</g></svg>
